!!!COM: Mozart
!!!OTL: Zwolf Variationen in C uber ein Menuett von Johann Christian Fischer
!!!Variation: Variation 12 c
**function	**harm	**kern	**kern
*	*	*clefF4	*clefG2
*	*	*k[]	*k[]
*M3/4	*M3/4	*M3/4	*M3/4
*C:	*C:	*C:	*C:
=334	=334	=334	=334
2.D	2.V	4G 4B	16dLL
.	.	.	(16dd
.	.	.	16cc#
.	.	.	16ddJJ)
.	.	4r	16bLL
.	.	.	16dd
.	.	.	16g
.	.	.	16bJJ
.	.	4G 4B	16dLL
.	.	.	16g
.	.	.	16b
.	.	.	16ddJJ
=335	=335	=335	=335
2.D	2.Ic	4G 4c	16eLL
.	.	.	(16ee
.	.	.	16dd#
.	.	.	16eeJJ)
.	.	4r	16ccLL
.	.	.	16ee
.	.	.	16g
.	.	.	16ccJJ
.	.	4G 4c	16eLL
.	.	.	16g
.	.	.	16cc
.	.	.	16eeJJ
=336	=336	=336	=336
2.D	2.V7	4G 4d	16fLL
.	.	.	(16ff
.	.	.	16ee
.	.	.	16ffJJ)
.	.	4r	16ddLL
.	.	.	16ff
.	.	.	16b
.	.	.	16ddJJ
.	.	4G 4d	16fLL
.	.	.	16b
.	.	.	16dd
.	.	.	16ffJJ
=337	=337	=337	=337
2T	2I	4c 4e	16gLL
.	.	.	(16gg
.	.	.	16ff#
.	.	.	16ggJJ)
.	.	4r	16eeLL
.	.	.	16gg
.	.	.	16cc
.	.	.	16eeJJ
4T	4IVc	4c 4f	16aLL
.	.	.	16cc
.	.	.	16ffn
.	.	.	16aaJJ
=338	=338	=338	=338
2T	2I	4c 4e	16gLL
.	.	.	(16gg
.	.	.	16ff#
.	.	.	16ggJJ)
.	.	4r	16eeLL
.	.	.	16gg
.	.	.	16cc
.	.	.	16eeJJ
4T	4IVc	4c 4f	16aLL
.	.	.	16cc
.	.	.	16ffn
.	.	.	16aaJJ
=339	=339	=339	=339
2.T	2.I	16eLL	16ggLL
.	.	16d#	16ff#
.	.	16e	16gg
.	.	16EJJ	16gJJ
.	.	16dLL	16ffLL
.	.	16c#	16ee
.	.	16d	16ff
.	.	16DJJ	16fJJ
.	.	16cLL	16eeLL
.	.	16B	16dd#
.	.	16c	16ee
.	.	16CJJ	16eJJ
=340	=340	=340	=340
2.T	2.viio	16BLL	16ddLL
.	.	16A#	16cc#
.	.	16B	16dd
.	.	16BBJJ	16dJJ
.	.	16cLL	16eeLL
.	.	16B	16dd#
.	.	16c	16ee
.	.	16CJJ	16eJJ
.	.	16dLL	16ffLL
.	.	16c#	16ee
.	.	16d	16ff
.	.	16DJJ	16fJJ
=341	=341	=341	=341
2.T	2.I	16eLL	16ggLL
.	.	16d#	16ff#
.	.	16e	16gg
.	.	16EJJ	16gJJ
.	.	16dLL	16ffLL
.	.	16c#	16ee
.	.	16d	16ff
.	.	16DJJ	16fJJ
.	.	16cLL	16eeLL
.	.	16B	16dd#
.	.	16c	16ee
.	.	16CJJ	16eJJ
=342	=342	=342	=342
2.D	2.V	16GLL	4d 4g 4b 4dd
.	.	16GG	.
.	.	16BB	.
.	.	16DJJ	.
.	.	16GLL	4r
.	.	16B	.
.	.	16d	.
.	.	16BJJ	.
.	.	16GLL	4r
.	.	16F	.
.	.	16E	.
.	.	16DJJ	.
*-	*-	*-	*-
